X: 4
T:Hava Nagila
M:8/8
L:1/8
C:Isahar Maron
K:Am
|:"E"E2 E3 ^GFE|"E7" ^G2 G3 BAG | "Dm" A2 A3 cBA|"E" ^G2"Dm" F2 "E" G4:|
|:"E" ^G(GG)F EE E2| "Dm" F(FF)E DD D2| D2 F>E D2 A2| "E" ^G2 "Dm" F2 "E
" G4:|
|"Am" A4 A4| A2 A2 A2 A2| (AAA c>B Ac BA| (AAA c>B Ac BA| "E" (BBB d>c B
d cB| (BBB d>c Bd cB| (BBB e2 (BBB e2 | EE cB "Am" A4||
